modules/feathericon/icons/star-o.svg

<?xml version="1.0" encoding="UTF-8"?>
<svg width="24px" height="24px" viewBox="0 0 24 24" version="1.1" xmlns="http://www.w3.org/2000/svg" xmlns:xlink="http://www.w3.org/1999/xlink">
    <!-- Generator: sketchtool 52.2 (67145) - http://www.bohemiancoding.com/sketch -->
    <title>star-o</title>
    <desc>Created with sketchtool.</desc>
    <g id="shape" stroke="none" stroke-width="1" fill="none" fill-rule="evenodd">
        <g id="star-o" fill="#000000" fill-rule="nonzero">
            <path d="M9.28198835,17.3621923 L12.5,15.6769441 L15.7180116,17.3621923 L15.1034261,13.7927794 L17.7068522,11.2649071 L14.1090058,10.7441368 L12.5,7.49657758 L10.8909942,10.7441368 L7.29314778,11.2649071 L9.89657389,13.7927794 L9.28198835,17.3621923 Z M12.5,17.9252329 L6.62867711,21 L7.75,14.4875388 L3,9.8753882 L9.56433855,8.92523292 L12.5,3 L15.4356614,8.92523292 L22,9.8753882 L17.25,14.4875388 L18.3713229,21 L12.5,17.9252329 Z" id="Shape"></path>
        </g>
    </g>
</svg>

<svg width="24" height="24" viewBox="0 0 24 24" xmlns="http://www.w3.org/2000/svg"><path d="M9.282 17.362l3.218-1.685 3.218 1.685-.615-3.57 2.604-2.527-3.598-.52L12.5 7.496l-1.609 3.247-3.598.52 2.604 2.529-.615 3.57zm3.218.563L6.629 21l1.121-6.512L3 9.875l6.564-.95L12.5 3l2.936 5.925 6.564.95-4.75 4.613L18.371 21 12.5 17.925z" fill="#000" fill-rule="nonzero"/></svg>
